static/img/common/logo_back.svg

<svg xmlns="http://www.w3.org/2000/svg" width="114" height="74" fill="none" viewBox="0 0 114 74"><g clip-path="url(#a)"><path fill="#a42444" d="M113.18 0H0v73.7h113.18z"/><path fill="#fff" d="M74.9 42.79h1.77v.45h-1.2v.72h1.11v.45h-1.11v.81h1.21v.45H74.9v-2.89zM58.02 42.79h1.09c.12 0 .23 0 .34.03.11.02.22.06.32.11s.18.13.25.23c.06.1.09.22.09.37 0 .17-.06.31-.17.43s-.26.19-.45.22c.21.03.39.1.52.22s.2.27.2.45c0 .17-.04.32-.11.43s-.16.2-.28.26c-.11.06-.23.1-.35.12q-.18.03-.36.03h-1.09v-2.91zm.63 1.17h.25c.07 0 .14 0 .21-.02.07 0 .13-.03.19-.05.06-.03.1-.06.14-.11.03-.05.05-.11.05-.18 0-.08-.02-.15-.05-.2a.26.26 0 0 0-.14-.11c-.06-.02-.12-.04-.18-.05-.07 0-.14-.01-.23-.01h-.24v.73m0 1.27h.29c.08 0 .16 0 .23-.02.07-.01.14-.03.2-.06q.09-.045.15-.12c.04-.05.06-.12.06-.2 0-.09-.02-.17-.05-.22a.32.32 0 0 0-.15-.13.7.7 0 0 0-.2-.06 2 2 0 0 0-.24-.02h-.29v.84zM62.08 42.79h.62v2.91h-.62zM64.96 43.14c.26-.27.63-.41 1.11-.41.24 0 .45.04.64.11s.35.17.47.31c.13.13.23.29.29.47.07.18.1.38.1.6s-.03.42-.1.61c-.07.18-.16.34-.29.48s-.28.24-.47.31-.4.11-.64.11c-.48 0-.85-.14-1.11-.41s-.39-.64-.39-1.1.13-.82.39-1.09zm.3 1.48c.03.13.08.24.15.34q.105.15.27.24t.39.09.39-.09.27-.24c.07-.1.12-.21.15-.34.03-.12.05-.26.05-.39s-.02-.26-.05-.39c-.03-.12-.09-.23-.16-.33a.67.67 0 0 0-.27-.23.8.8 0 0 0-.38-.09.76.76 0 0 0-.65.33c-.07.1-.12.21-.16.33-.03.12-.05.25-.05.38 0 .14.02.27.05.39M69.34 42.79h1l.74 2.2.74-2.2h1v2.91h-.6v-2.4l-.84 2.4h-.6l-.84-2.4v2.4h-.6zM79.41 43.25h-.89v-.46h2.41v.46h-.89v2.45h-.62v-2.45zM82.69 42.79h.67c.24 0 .44 0 .59.02s.3.04.44.09c.13.05.24.13.32.24s.12.25.12.44c0 .18-.06.33-.17.45-.12.12-.27.2-.47.23.07.01.14.04.19.1s.1.12.14.21l.5 1.14h-.69l-.38-.91a.7.7 0 0 0-.16-.24.5.5 0 0 0-.27-.06h-.2v1.21h-.62V42.8zm.62 1.24h.21c.09 0 .17 0 .25-.02.07-.01.14-.03.2-.06q.09-.045.15-.12t.06-.21c0-.08-.02-.15-.06-.2a.33.33 0 0 0-.15-.11c-.06-.03-.13-.04-.2-.05-.07 0-.16-.01-.25-.01h-.21zM86.93 42.79h.62v2.91h-.62zM91.9 45.6c-.12.03-.24.05-.35.06-.11.02-.22.02-.33.02-.5 0-.9-.11-1.19-.34-.15-.12-.26-.27-.34-.44a1.5 1.5 0 0 1-.12-.62c0-.48.15-.85.44-1.11s.69-.39 1.21-.39a2 2 0 0 1 .68.12l-.04.47c-.11-.06-.21-.09-.31-.12-.1-.02-.22-.03-.34-.03-.15 0-.29.03-.41.08s-.23.12-.32.22c-.09.09-.15.2-.2.32s-.07.26-.07.4c0 .29.09.53.28.72s.43.28.74.28c.12 0 .24-.01.37-.03.12-.02.22-.05.29-.08l.03.47zM95.55 43.35q-.315-.12-.63-.12c-.06 0-.12 0-.17.02s-.11.04-.16.06q-.075.045-.12.12c-.03.05-.04.11-.04.19q0 .135.12.21c.08.05.21.11.39.17q.195.075.33.12c.09.04.17.09.25.15s.15.14.19.23c.05.09.07.21.07.34q0 .225-.09.39c-.06.11-.14.2-.25.27s-.23.12-.37.15-.29.05-.45.05c-.14 0-.26 0-.35-.02-.09-.01-.22-.04-.38-.07l-.07-.02.06-.51c.11.05.23.1.35.13s.24.05.36.05c.14 0 .26-.03.38-.1.12-.06.17-.15.17-.27 0-.1-.04-.19-.13-.24a1.8 1.8 0 0 0-.41-.18c-.12-.05-.23-.09-.32-.12-.09-.04-.17-.09-.25-.15a.671.671 0 0 1-.26-.56q0-.225.09-.39t.24-.27c.1-.07.22-.12.35-.15s.26-.05.41-.05c.27 0 .52.03.74.1l-.06.47zM21.6 42.79h1.77v.45h-1.2v.72h1.11v.45h-1.11v.81h1.21v.45H21.6v-2.89zM29.56 42.79h.57v1.67c0 .26.05.46.14.6q.135.21.45.21t.45-.21c.09-.14.14-.34.14-.6v-1.67h.56v1.85c0 .38-.1.65-.29.83-.2.18-.48.27-.86.27-.37 0-.66-.09-.86-.27s-.3-.45-.3-.83zM45.59 44.55l-1.03-1.77h.66l.67 1.23.68-1.23h.6l-1.01 1.78v1.16h-.57v-1.17M41.67 43.25h-.89v-.46h2.41v.46h-.89v2.45h-.62v-2.45zM33.92 42.79h.67c.24 0 .44 0 .59.02s.3.04.44.09c.13.05.24.13.32.24s.12.25.12.44c0 .18-.06.33-.17.45-.12.12-.27.2-.47.23.07.01.14.04.19.1s.1.12.14.21l.5 1.14h-.69l-.38-.91a.7.7 0 0 0-.16-.24.5.5 0 0 0-.27-.06h-.2v1.21h-.62V42.8zm.62 1.24h.21c.09 0 .17 0 .25-.02.07-.01.14-.03.2-.06q.09-.045.15-.12t.06-.21c0-.08-.02-.15-.06-.2a.33.33 0 0 0-.15-.11 1 1 0 0 0-.2-.05c-.07 0-.16-.01-.25-.01h-.21zM38.13 42.79h.62v2.91h-.62zM27.63 45.6c-.12.03-.24.05-.35.06-.11.02-.22.02-.33.02-.5 0-.9-.11-1.19-.34-.15-.12-.26-.27-.34-.44a1.5 1.5 0 0 1-.12-.62c0-.48.15-.85.44-1.11s.7-.39 1.21-.39a2 2 0 0 1 .68.12l-.04.47c-.11-.06-.21-.09-.31-.12-.1-.02-.22-.03-.34-.03-.15 0-.29.03-.41.08s-.23.12-.32.22c-.09.09-.15.2-.2.32s-.07.26-.07.4c0 .29.09.53.28.72s.43.28.74.28c.12 0 .24-.01.37-.03.12-.02.22-.05.29-.08l.03.47zM18.98 43.35q-.315-.12-.63-.12c-.06 0-.12 0-.17.02s-.11.04-.16.06q-.075.045-.12.12c-.03.05-.04.11-.04.19q0 .135.12.21c.08.05.21.11.39.17q.195.075.33.12c.09.04.17.09.25.15s.15.14.19.23c.05.09.07.21.07.34q0 .225-.09.39c-.06.11-.14.2-.25.27s-.23.12-.37.15-.29.05-.45.05c-.14 0-.26 0-.35-.02-.09-.01-.22-.04-.38-.07l-.07-.02.06-.51c.11.05.23.1.35.13s.24.05.36.05c.14 0 .26-.03.38-.1.12-.06.17-.15.17-.27 0-.1-.04-.19-.13-.24a1.8 1.8 0 0 0-.41-.18c-.12-.05-.23-.09-.32-.12-.09-.04-.17-.09-.25-.15a.671.671 0 0 1-.26-.56q0-.225.09-.39t.24-.27c.1-.07.22-.12.35-.15s.26-.05.41-.05c.27 0 .52.03.74.1l-.06.47zM53.4 45.06c.16-.2.28-.47.37-.81l.02-.08h-.47v.05c-.06.23-.14.41-.23.53l-.63-.61c.17-.1.29-.21.37-.32.09-.12.14-.26.14-.41 0-.2-.07-.36-.2-.48a.8.8 0 0 0-.53-.17c-.24 0-.43.06-.56.18a.6.6 0 0 0-.21.48c0 .08.01.16.04.23.02.07.06.14.1.21.04.06.09.12.16.21q-.3.18-.42.36c-.09.13-.14.29-.14.46 0 .26.08.46.25.6.16.14.39.21.67.21.19 0 .37-.03.52-.09.14-.05.28-.14.42-.25l.31.3h.63l-.63-.61zm-.62.01q-.255.21-.63.21c-.14 0-.25-.04-.34-.11a.37.37 0 0 1-.12-.29c0-.1.03-.19.08-.26s.15-.15.29-.24zm-.85-1.65c0-.08.03-.14.08-.18.05-.05.13-.07.22-.07s.15.02.21.07c.05.05.08.11.08.18 0 .09-.03.16-.08.23q-.075.105-.27.21a1 1 0 0 1-.17-.22.4.4 0 0 1-.06-.21zM34.15 28.48v6.81c.01.45.01 1.12-.36 1.49-.26.26-.68.39-1.24.39h-1.82c-.31 0-.82 0-1.18-.36-.3-.3-.46-.81-.46-1.51v-6.82h-2.28v6.85c0 .68.17 4.09 3.39 4.09h2.99c1.22 0 3.26-.54 3.26-4.1v-6.85h-2.29zM21.5 32.5l-2.48-.31c-.6-.1-1.13-.24-1.13-.87 0-1.01.29-1.28 2.32-1.28h.51c1.19.06 2.3.16 3.66.54l.17.05v-1.57l-.02-.03c-.2-.4-2.07-1.04-3.9-1.04h-.5c-3.08 0-4.58 1.15-4.57 3.5 0 2.26 1.9 2.74 3.67 3.02l1.1.15c.81.1 1.27.17 1.56.28.48.19.74.35.73 1.11-.02 1.25-.85 1.39-2.65 1.39h-.51c-1.06 0-2.35-.3-3.72-.86l-.18-.08v1.53c0 .62 1.88 1.41 3.99 1.41h.46c3.44 0 5.04-1.16 5.04-3.65 0-2.41-1.79-3.01-3.54-3.28M44.23 27.97h-.33c-4.16 0-5.7 1.57-5.7 5.78v5.68h2.43v-5.67c0-3.19.7-3.73 2.85-3.73h.54c2.07 0 2.45.6 2.45 2.07 0 .91-.3 1.96-1.14 1.97L41.51 34v1.67l.11.02c.77.13 2.13.22 3.17.22 3.57 0 4.15-1.96 4.15-3.61 0-2.71-1.76-4.33-4.71-4.33M57.1 28.11c-.63-.1-2.11-.15-2.85-.15-1.33 0-3.56.54-3.56 4.17v7.3h2.39v-7.15c-.01-1.92.34-2.12 1.85-2.12h2.18v-2.05zM64.46 37.33H64c-2.02 0-3.24-.24-3.25-3.57 0-3.18.71-3.72 2.86-3.72h.54c2.01 0 2.44.33 2.45 1.85 0 .76-.34 1.08-1.14 1.08h-3.83v1.6l.11.02c.76.13 2.12.23 3.17.22 1.55 0 4.15-.3 4.15-3.27s-2.56-3.55-4.7-3.55h-.34c-4.16 0-5.71 1.57-5.71 5.78 0 4.03 1.59 5.67 5.47 5.67h.29c2.46 0 4.53-.65 4.53-1.42v-1.33l-.17.04c-1.43.38-2.54.6-3.99.6M85.12 32.2c0-1.98-.75-3-1.55-3.52 0 0-.88-.66-2.43-.66-.76 0-1.36.1-1.82.25-.64.18-1.04.49-1.25.69-.07.07-.1.11-.1.11s-.83-1.07-3.17-1.05c-1.02 0-1.75.28-2.13.48-.01 0-.03.01-.04.02l-.06.03c-1.53.83-1.74 2.72-1.73 3.66v7.21h2.17V32.2c0-1.09.21-2.09 1.84-2.1 1.69 0 2.02.76 2.02 2.09v7.22h2.23V32.2c0-1.44.58-2.12 1.86-2.12 1.38 0 1.99.65 1.99 2.11v7.21h2.18v-7.21zM91.5 30.08h.46c2.02 0 3.24.24 3.25 3.57 0 3.18-.71 3.72-2.86 3.72h-.54c-2.01 0-2.44-.33-2.45-1.85 0-.76.34-1.08 1.14-1.08h3.83v-1.6l-.11-.02c-.76-.13-2.12-.23-3.17-.22-1.55 0-4.15.3-4.15 3.27s2.56 3.55 4.7 3.55h.34c4.16 0 5.71-1.57 5.71-5.78 0-4.03-1.59-5.67-5.47-5.67h-.29c-2.46 0-4.53.65-4.53 1.42v1.33l.17-.04c1.43-.38 2.54-.6 3.99-.6"/></g><defs><clipPath id="a"><path fill="#fff" d="M0 0h113.18v73.7H0z"/></clipPath></defs></svg>

<svg width="114" height="74" viewBox="0 0 114 74" fill="none" xmlns="http://www.w3.org/2000/svg">
<g clip-path="url(#clip0_181_137)">
<path d="M113.18 0H0V73.7H113.18V0Z" fill="#A42444"/>
<path d="M74.9 42.79H76.67V43.24H75.47V43.96H76.58V44.41H75.47V45.22H76.68V45.67H74.9V42.78V42.79Z" fill="white"/>
<path d="M58.02 42.79H59.11C59.23 42.79 59.34 42.79 59.45 42.82C59.56 42.84 59.67 42.88 59.77 42.93C59.87 42.98 59.95 43.06 60.02 43.16C60.08 43.26 60.11 43.38 60.11 43.53C60.11 43.7 60.05 43.84 59.94 43.96C59.83 44.08 59.68 44.15 59.49 44.18C59.7 44.21 59.88 44.28 60.01 44.4C60.14 44.52 60.21 44.67 60.21 44.85C60.21 45.02 60.17 45.17 60.1 45.28C60.03 45.39 59.94 45.48 59.82 45.54C59.71 45.6 59.59 45.64 59.47 45.66C59.35 45.68 59.23 45.69 59.11 45.69H58.02V42.78V42.79ZM58.65 43.96H58.9C58.97 43.96 59.04 43.96 59.11 43.94C59.18 43.94 59.24 43.91 59.3 43.89C59.36 43.86 59.4 43.83 59.44 43.78C59.47 43.73 59.49 43.67 59.49 43.6C59.49 43.52 59.47 43.45 59.44 43.4C59.41 43.35 59.36 43.31 59.3 43.29C59.24 43.27 59.18 43.25 59.12 43.24C59.05 43.24 58.98 43.23 58.89 43.23H58.65V43.95V43.96ZM58.65 45.23H58.94C59.02 45.23 59.1 45.23 59.17 45.21C59.24 45.2 59.31 45.18 59.37 45.15C59.43 45.12 59.48 45.08 59.52 45.03C59.56 44.98 59.58 44.91 59.58 44.83C59.58 44.74 59.56 44.66 59.53 44.61C59.49 44.55 59.45 44.51 59.38 44.48C59.32 44.45 59.25 44.43 59.18 44.42C59.11 44.41 59.03 44.4 58.94 44.4H58.65V45.24V45.23Z" fill="white"/>
<path d="M62.08 42.79H62.7V45.7H62.08V42.79Z" fill="white"/>
<path d="M64.96 43.14C65.22 42.87 65.59 42.73 66.07 42.73C66.31 42.73 66.52 42.77 66.71 42.84C66.9 42.91 67.06 43.01 67.18 43.15C67.31 43.28 67.41 43.44 67.47 43.62C67.54 43.8 67.57 44 67.57 44.22C67.57 44.44 67.54 44.64 67.47 44.83C67.4 45.01 67.31 45.17 67.18 45.31C67.05 45.45 66.9 45.55 66.71 45.62C66.52 45.69 66.31 45.73 66.07 45.73C65.59 45.73 65.22 45.59 64.96 45.32C64.7 45.05 64.57 44.68 64.57 44.22C64.57 43.76 64.7 43.4 64.96 43.13V43.14ZM65.26 44.62C65.29 44.75 65.34 44.86 65.41 44.96C65.48 45.06 65.57 45.14 65.68 45.2C65.79 45.26 65.92 45.29 66.07 45.29C66.22 45.29 66.35 45.26 66.46 45.2C66.57 45.14 66.66 45.06 66.73 44.96C66.8 44.86 66.85 44.75 66.88 44.62C66.91 44.5 66.93 44.36 66.93 44.23C66.93 44.1 66.91 43.97 66.88 43.84C66.85 43.72 66.79 43.61 66.72 43.51C66.65 43.41 66.56 43.33 66.45 43.28C66.34 43.22 66.21 43.19 66.07 43.19C65.92 43.19 65.8 43.22 65.69 43.28C65.58 43.34 65.49 43.42 65.42 43.52C65.35 43.62 65.3 43.73 65.26 43.85C65.23 43.97 65.21 44.1 65.21 44.23C65.21 44.37 65.23 44.5 65.26 44.62Z" fill="white"/>
<path d="M69.34 42.79H70.34L71.08 44.99L71.82 42.79H72.82V45.7H72.22V43.3L71.38 45.7H70.78L69.94 43.3V45.7H69.34V42.79Z" fill="white"/>
<path d="M79.41 43.25H78.52V42.79H80.93V43.25H80.04V45.7H79.42V43.25H79.41Z" fill="white"/>
<path d="M82.69 42.79H83.36C83.6 42.79 83.8 42.79 83.95 42.81C84.1 42.83 84.25 42.85 84.39 42.9C84.52 42.95 84.63 43.03 84.71 43.14C84.79 43.25 84.83 43.39 84.83 43.58C84.83 43.76 84.77 43.91 84.66 44.03C84.54 44.15 84.39 44.23 84.19 44.26C84.26 44.27 84.33 44.3 84.38 44.36C84.43 44.42 84.48 44.48 84.52 44.57L85.02 45.71H84.33L83.95 44.8C83.9 44.69 83.85 44.61 83.79 44.56C83.73 44.52 83.64 44.5 83.52 44.5H83.32V45.71H82.7V42.8L82.69 42.79ZM83.31 44.03H83.52C83.61 44.03 83.69 44.03 83.77 44.01C83.84 44 83.91 43.98 83.97 43.95C84.03 43.92 84.08 43.88 84.12 43.83C84.16 43.78 84.18 43.71 84.18 43.62C84.18 43.54 84.16 43.47 84.12 43.42C84.08 43.37 84.03 43.33 83.97 43.31C83.91 43.28 83.84 43.27 83.77 43.26C83.7 43.26 83.61 43.25 83.52 43.25H83.31V44.03Z" fill="white"/>
<path d="M86.93 42.79H87.55V45.7H86.93V42.79Z" fill="white"/>
<path d="M91.9 45.6C91.78 45.63 91.66 45.65 91.55 45.66C91.44 45.68 91.33 45.68 91.22 45.68C90.72 45.68 90.32 45.57 90.03 45.34C89.88 45.22 89.77 45.07 89.69 44.9C89.61 44.72 89.57 44.52 89.57 44.28C89.57 43.8 89.72 43.43 90.01 43.17C90.3 42.91 90.7 42.78 91.22 42.78C91.33 42.78 91.44 42.79 91.56 42.81C91.68 42.83 91.79 42.86 91.9 42.9L91.86 43.37C91.75 43.31 91.65 43.28 91.55 43.25C91.45 43.23 91.33 43.22 91.21 43.22C91.06 43.22 90.92 43.25 90.8 43.3C90.68 43.35 90.57 43.42 90.48 43.52C90.39 43.61 90.33 43.72 90.28 43.84C90.23 43.96 90.21 44.1 90.21 44.24C90.21 44.53 90.3 44.77 90.49 44.96C90.68 45.15 90.92 45.24 91.23 45.24C91.35 45.24 91.47 45.23 91.6 45.21C91.72 45.19 91.82 45.16 91.89 45.13L91.92 45.6H91.9Z" fill="white"/>
<path d="M95.55 43.35C95.34 43.27 95.13 43.23 94.92 43.23C94.86 43.23 94.8 43.23 94.75 43.25C94.7 43.27 94.64 43.29 94.59 43.31C94.54 43.34 94.5 43.38 94.47 43.43C94.44 43.48 94.43 43.54 94.43 43.62C94.43 43.71 94.47 43.78 94.55 43.83C94.63 43.88 94.76 43.94 94.94 44C95.07 44.05 95.18 44.09 95.27 44.12C95.36 44.16 95.44 44.21 95.52 44.27C95.6 44.33 95.67 44.41 95.71 44.5C95.76 44.59 95.78 44.71 95.78 44.84C95.78 44.99 95.75 45.12 95.69 45.23C95.63 45.34 95.55 45.43 95.44 45.5C95.33 45.57 95.21 45.62 95.07 45.65C94.93 45.68 94.78 45.7 94.62 45.7C94.48 45.7 94.36 45.7 94.27 45.68C94.18 45.67 94.05 45.64 93.89 45.61L93.82 45.59L93.88 45.08C93.99 45.13 94.11 45.18 94.23 45.21C94.35 45.24 94.47 45.26 94.59 45.26C94.73 45.26 94.85 45.23 94.97 45.16C95.09 45.1 95.14 45.01 95.14 44.89C95.14 44.79 95.1 44.7 95.01 44.65C94.92 44.59 94.78 44.53 94.6 44.47C94.48 44.42 94.37 44.38 94.28 44.35C94.19 44.31 94.11 44.26 94.03 44.2C93.95 44.14 93.89 44.06 93.84 43.97C93.79 43.88 93.77 43.77 93.77 43.64C93.77 43.49 93.8 43.36 93.86 43.25C93.92 43.14 94 43.05 94.1 42.98C94.2 42.91 94.32 42.86 94.45 42.83C94.58 42.8 94.71 42.78 94.86 42.78C95.13 42.78 95.38 42.81 95.6 42.88L95.54 43.35H95.55Z" fill="white"/>
<path d="M21.6 42.79H23.37V43.24H22.17V43.96H23.28V44.41H22.17V45.22H23.38V45.67H21.6V42.78V42.79Z" fill="white"/>
<path d="M29.56 42.79H30.13V44.46C30.13 44.72 30.18 44.92 30.27 45.06C30.36 45.2 30.51 45.27 30.72 45.27C30.93 45.27 31.08 45.2 31.17 45.06C31.26 44.92 31.31 44.72 31.31 44.46V42.79H31.87V44.64C31.87 45.02 31.77 45.29 31.58 45.47C31.38 45.65 31.1 45.74 30.72 45.74C30.35 45.74 30.06 45.65 29.86 45.47C29.66 45.29 29.56 45.02 29.56 44.64V42.79Z" fill="white"/>
<path d="M45.59 44.55L44.56 42.78H45.22L45.89 44.01L46.57 42.78H47.17L46.16 44.56V45.72H45.59V44.56V44.55Z" fill="white"/>
<path d="M41.67 43.25H40.78V42.79H43.19V43.25H42.3V45.7H41.68V43.25H41.67Z" fill="white"/>
<path d="M33.92 42.79H34.59C34.83 42.79 35.03 42.79 35.18 42.81C35.33 42.83 35.48 42.85 35.62 42.9C35.75 42.95 35.86 43.03 35.94 43.14C36.02 43.25 36.06 43.39 36.06 43.58C36.06 43.76 36 43.91 35.89 44.03C35.77 44.15 35.62 44.23 35.42 44.26C35.49 44.27 35.56 44.3 35.61 44.36C35.66 44.42 35.71 44.48 35.75 44.57L36.25 45.71H35.56L35.18 44.8C35.13 44.69 35.08 44.61 35.02 44.56C34.96 44.52 34.87 44.5 34.75 44.5H34.55V45.71H33.93V42.8L33.92 42.79ZM34.54 44.03H34.75C34.84 44.03 34.92 44.03 35 44.01C35.07 44 35.14 43.98 35.2 43.95C35.26 43.92 35.31 43.88 35.35 43.83C35.39 43.78 35.41 43.71 35.41 43.62C35.41 43.54 35.39 43.47 35.35 43.42C35.31 43.37 35.26 43.33 35.2 43.31C35.14 43.29 35.07 43.27 35 43.26C34.93 43.26 34.84 43.25 34.75 43.25H34.54V44.03Z" fill="white"/>
<path d="M38.13 42.79H38.75V45.7H38.13V42.79Z" fill="white"/>
<path d="M27.63 45.6C27.51 45.63 27.39 45.65 27.28 45.66C27.17 45.68 27.06 45.68 26.95 45.68C26.45 45.68 26.05 45.57 25.76 45.34C25.61 45.22 25.5 45.07 25.42 44.9C25.34 44.72 25.3 44.52 25.3 44.28C25.3 43.8 25.45 43.43 25.74 43.17C26.03 42.91 26.44 42.78 26.95 42.78C27.06 42.78 27.17 42.79 27.29 42.81C27.41 42.83 27.52 42.86 27.63 42.9L27.59 43.37C27.48 43.31 27.38 43.28 27.28 43.25C27.18 43.23 27.06 43.22 26.94 43.22C26.79 43.22 26.65 43.25 26.53 43.3C26.41 43.35 26.3 43.42 26.21 43.52C26.12 43.61 26.06 43.72 26.01 43.84C25.96 43.96 25.94 44.1 25.94 44.24C25.94 44.53 26.03 44.77 26.22 44.96C26.41 45.15 26.65 45.24 26.96 45.24C27.08 45.24 27.2 45.23 27.33 45.21C27.45 45.19 27.55 45.16 27.62 45.13L27.65 45.6H27.63Z" fill="white"/>
<path d="M18.98 43.35C18.77 43.27 18.56 43.23 18.35 43.23C18.29 43.23 18.23 43.23 18.18 43.25C18.13 43.27 18.07 43.29 18.02 43.31C17.97 43.34 17.93 43.38 17.9 43.43C17.87 43.48 17.86 43.54 17.86 43.62C17.86 43.71 17.9 43.78 17.98 43.83C18.06 43.88 18.19 43.94 18.37 44C18.5 44.05 18.61 44.09 18.7 44.12C18.79 44.16 18.87 44.21 18.95 44.27C19.03 44.33 19.1 44.41 19.14 44.5C19.19 44.59 19.21 44.71 19.21 44.84C19.21 44.99 19.18 45.12 19.12 45.23C19.06 45.34 18.98 45.43 18.87 45.5C18.76 45.57 18.64 45.62 18.5 45.65C18.36 45.68 18.21 45.7 18.05 45.7C17.91 45.7 17.79 45.7 17.7 45.68C17.61 45.67 17.48 45.64 17.32 45.61L17.25 45.59L17.31 45.08C17.42 45.13 17.54 45.18 17.66 45.21C17.78 45.24 17.9 45.26 18.02 45.26C18.16 45.26 18.28 45.23 18.4 45.16C18.52 45.1 18.57 45.01 18.57 44.89C18.57 44.79 18.53 44.7 18.44 44.65C18.35 44.59 18.21 44.53 18.03 44.47C17.91 44.42 17.8 44.38 17.71 44.35C17.62 44.31 17.54 44.26 17.46 44.2C17.38 44.14 17.32 44.06 17.27 43.97C17.22 43.88 17.2 43.77 17.2 43.64C17.2 43.49 17.23 43.36 17.29 43.25C17.35 43.14 17.43 43.05 17.53 42.98C17.63 42.91 17.75 42.86 17.88 42.83C18.01 42.8 18.14 42.78 18.29 42.78C18.56 42.78 18.81 42.81 19.03 42.88L18.97 43.35H18.98Z" fill="white"/>
<path d="M53.4 45.06C53.56 44.86 53.68 44.59 53.77 44.25L53.79 44.17H53.32V44.22C53.26 44.45 53.18 44.63 53.09 44.75L52.46 44.14C52.63 44.04 52.75 43.93 52.83 43.82C52.92 43.7 52.97 43.56 52.97 43.41C52.97 43.21 52.9 43.05 52.77 42.93C52.64 42.82 52.46 42.76 52.24 42.76C52 42.76 51.81 42.82 51.68 42.94C51.54 43.06 51.47 43.22 51.47 43.42C51.47 43.5 51.48 43.58 51.51 43.65C51.53 43.72 51.57 43.79 51.61 43.86C51.65 43.92 51.7 43.98 51.77 44.07C51.57 44.19 51.43 44.31 51.35 44.43C51.26 44.56 51.21 44.72 51.21 44.89C51.21 45.15 51.29 45.35 51.46 45.49C51.62 45.63 51.85 45.7 52.13 45.7C52.32 45.7 52.5 45.67 52.65 45.61C52.79 45.56 52.93 45.47 53.07 45.36L53.38 45.66H54.01L53.38 45.05L53.4 45.06ZM52.78 45.07C52.61 45.21 52.4 45.28 52.15 45.28C52.01 45.28 51.9 45.24 51.81 45.17C51.73 45.1 51.69 45 51.69 44.88C51.69 44.78 51.72 44.69 51.77 44.62C51.82 44.55 51.92 44.47 52.06 44.38L52.78 45.07ZM51.93 43.42C51.93 43.34 51.96 43.28 52.01 43.24C52.06 43.19 52.14 43.17 52.23 43.17C52.32 43.17 52.38 43.19 52.44 43.24C52.49 43.29 52.52 43.35 52.52 43.42C52.52 43.51 52.49 43.58 52.44 43.65C52.39 43.72 52.3 43.79 52.17 43.86C52.09 43.78 52.03 43.7 52 43.64C51.96 43.57 51.94 43.5 51.94 43.43L51.93 43.42Z" fill="white"/>
<path d="M34.15 28.48V35.29C34.16 35.74 34.16 36.41 33.79 36.78C33.53 37.04 33.11 37.17 32.55 37.17H30.73C30.42 37.17 29.91 37.17 29.55 36.81C29.25 36.51 29.09 36 29.09 35.3V28.48H26.81V35.33C26.81 36.01 26.98 39.42 30.2 39.42H33.19C34.41 39.42 36.45 38.88 36.45 35.32V28.47H34.16L34.15 28.48Z" fill="white"/>
<path d="M21.5 32.5L19.02 32.19C18.42 32.09 17.89 31.95 17.89 31.32C17.89 30.31 18.18 30.04 20.21 30.04H20.72C21.91 30.1 23.02 30.2 24.38 30.58L24.55 30.63V29.06L24.53 29.03C24.33 28.63 22.46 27.99 20.63 27.99H20.13C17.05 27.99 15.55 29.14 15.56 31.49C15.56 33.75 17.46 34.23 19.23 34.51L20.33 34.66C21.14 34.76 21.6 34.83 21.89 34.94C22.37 35.13 22.63 35.29 22.62 36.05C22.6 37.3 21.77 37.44 19.97 37.44H19.46C18.4 37.44 17.11 37.14 15.74 36.58L15.56 36.5V38.03C15.56 38.65 17.44 39.44 19.55 39.44H20.01C23.45 39.44 25.05 38.28 25.05 35.79C25.05 33.38 23.26 32.78 21.51 32.51" fill="white"/>
<path d="M44.23 27.97H43.9C39.74 27.97 38.2 29.54 38.2 33.75V39.43H40.63V33.76C40.63 30.57 41.33 30.03 43.48 30.03H44.02C46.09 30.03 46.47 30.63 46.47 32.1C46.47 33.01 46.17 34.06 45.33 34.07L41.51 34V35.67L41.62 35.69C42.39 35.82 43.75 35.91 44.79 35.91C48.36 35.91 48.94 33.95 48.94 32.3C48.94 29.59 47.18 27.97 44.23 27.97Z" fill="white"/>
<path d="M57.1 28.11C56.47 28.01 54.99 27.96 54.25 27.96C52.92 27.96 50.69 28.5 50.69 32.13V39.43H53.08V32.28C53.07 30.36 53.42 30.16 54.93 30.16H57.11V28.11H57.1Z" fill="white"/>
<path d="M64.46 37.33H64C61.98 37.33 60.76 37.09 60.75 33.76C60.75 30.58 61.46 30.04 63.61 30.04H64.15C66.16 30.04 66.59 30.37 66.6 31.89C66.6 32.65 66.26 32.97 65.46 32.97H61.63V34.57L61.74 34.59C62.5 34.72 63.86 34.82 64.91 34.81C66.46 34.81 69.06 34.51 69.06 31.54C69.06 28.57 66.5 27.99 64.36 27.99H64.02C59.86 27.99 58.31 29.56 58.31 33.77C58.31 37.8 59.9 39.44 63.78 39.44H64.07C66.53 39.44 68.6 38.79 68.6 38.02V36.69L68.43 36.73C67 37.11 65.89 37.33 64.44 37.33" fill="white"/>
<path d="M85.12 32.2C85.12 30.22 84.37 29.2 83.57 28.68C83.57 28.68 82.69 28.02 81.14 28.02C80.38 28.02 79.78 28.12 79.32 28.27C78.68 28.45 78.28 28.76 78.07 28.96C78 29.03 77.97 29.07 77.97 29.07C77.97 29.07 77.14 28 74.8 28.02C73.78 28.02 73.05 28.3 72.67 28.5C72.66 28.5 72.64 28.51 72.63 28.52C72.61 28.53 72.59 28.54 72.57 28.55C71.04 29.38 70.83 31.27 70.84 32.21V39.42H73.01V32.2C73.01 31.11 73.22 30.11 74.85 30.1C76.54 30.1 76.87 30.86 76.87 32.19V39.41H79.1V32.2C79.1 30.76 79.68 30.08 80.96 30.08C82.34 30.08 82.95 30.73 82.95 32.19V39.4H85.13V32.19L85.12 32.2Z" fill="white"/>
<path d="M91.5 30.08H91.96C93.98 30.08 95.2 30.32 95.21 33.65C95.21 36.83 94.5 37.37 92.35 37.37H91.81C89.8 37.37 89.37 37.04 89.36 35.52C89.36 34.76 89.7 34.44 90.5 34.44H94.33V32.84L94.22 32.82C93.46 32.69 92.1 32.59 91.05 32.6C89.5 32.6 86.9 32.9 86.9 35.87C86.9 38.84 89.46 39.42 91.6 39.42H91.94C96.1 39.42 97.65 37.85 97.65 33.64C97.65 29.61 96.06 27.97 92.18 27.97H91.89C89.43 27.97 87.36 28.62 87.36 29.39V30.72L87.53 30.68C88.96 30.3 90.07 30.08 91.52 30.08" fill="white"/>
</g>
<defs>
<clipPath id="clip0_181_137">
<rect width="113.18" height="73.7" fill="white"/>
</clipPath>
</defs>
</svg>
